X:227
T:The Log Skidder's Reel
R:reel
C:Bruce Osborne - Dec. 2002
Z:abc by bosborne@kos.net
M:2/4
L:1/8
K:Amaj
E/G/|Ac/A/ E/A/c/f/|e/c/f/c/ e/c/A/c/|B/A/G/F/ E/C/A,/C/|B,/A,/B,/C/ B,E/G/|\
Ac/A/ E/A/c/f/|e/c/f/c/ e/c/A/c/|B/A/G/F/ E/G/B/G/|A/c/B/G/ A:|
|:c/d/|e/c/A/f/ e/c/A/f/|e/c/A/B/ cB/c/|d/B/G/B/ E/G/B/G/|A/B/c/f/ ec/d/|\
e/c/A/f/ e/c/A/f/|e/c/A/B/ cB/c/|d/B/G/B/ E/G/B/G/|A/c/B/G/ A:|
